dist/img/icons/folder.svg

<svg width="26" height="26" viewBox="0 0 26 26" fill="#000" xmlns="http://www.w3.org/2000/svg">
<path fill-rule="evenodd" clip-rule="evenodd" d="M8.1875 4.75C7.808 4.75 7.5 5.058 7.5 5.4375C7.5 5.81769 7.808 6.125 8.1875 6.125C8.567 6.125 8.875 5.81769 8.875 5.4375C8.875 5.058 8.567 4.75 8.1875 4.75ZM10.9375 4.75C10.558 4.75 10.25 5.058 10.25 5.4375C10.25 5.81769 10.558 6.125 10.9375 6.125C11.317 6.125 11.625 5.81769 11.625 5.4375C11.625 5.058 11.317 4.75 10.9375 4.75ZM22.625 7.5H3.375V4.75C3.375 3.991 3.991 3.375 4.75 3.375H21.25C22.009 3.375 22.625 3.991 22.625 4.75V7.5ZM22.625 21.25C22.625 22.009 22.009 22.625 21.25 22.625H4.75C3.991 22.625 3.375 22.009 3.375 21.25V8.875H22.625V21.25ZM21.25 2H4.75C3.23131 2 2 3.23131 2 4.75V21.25C2 22.7687 3.23131 24 4.75 24H21.25C22.7687 24 24 22.7687 24 21.25V4.75C24 3.23131 22.7687 2 21.25 2ZM5.4375 4.75C5.058 4.75 4.75 5.058 4.75 5.4375C4.75 5.81769 5.058 6.125 5.4375 6.125C5.817 6.125 6.125 5.81769 6.125 5.4375C6.125 5.058 5.817 4.75 5.4375 4.75Z"/>
</svg>

<svg width="26" height="26" viewBox="0 0 26 26" fill="none" xmlns="http://www.w3.org/2000/svg"><path fill-rule="evenodd" clip-rule="evenodd" d="M8.188 4.75a.688.688 0 1 0 0 1.376.688.688 0 0 0 0-1.376zm2.75 0a.688.688 0 1 0 0 1.376.688.688 0 0 0 0-1.376zM22.624 7.5H3.375V4.75c0-.759.616-1.375 1.375-1.375h16.5c.759 0 1.375.616 1.375 1.375V7.5zm0 13.75c0 .759-.616 1.375-1.375 1.375H4.75a1.376 1.376 0 0 1-1.375-1.375V8.875h19.25V21.25zM21.25 2H4.75A2.75 2.75 0 0 0 2 4.75v16.5A2.75 2.75 0 0 0 4.75 24h16.5A2.75 2.75 0 0 0 24 21.25V4.75A2.75 2.75 0 0 0 21.25 2zM5.437 4.75a.688.688 0 1 0 .001 1.376.688.688 0 0 0 0-1.376z" fill="#131314"/></svg>
